Flat-Remix-Blue/mimetypes/scalable/libreoffice-master-document.svg

<svg xmlns="http://www.w3.org/2000/svg" xmlns:xlink="http://www.w3.org/1999/xlink" width="36pt" height="36pt" version="1.1" viewBox="0 0 36 36"> <defs> <clipPath id="clip1"> <path d="M 20 2 L 31 2 L 31 13 L 20 13 Z M 20 2"/> </clipPath> <clipPath id="clip2"> <path d="M 20.515625 2.625 L 30.328125 12.4375 L 22.023438 12.4375 C 21.292969 12.4375 20.515625 11.660156 20.515625 10.929688 Z M 20.515625 2.625"/> </clipPath> <image id="image6" width="36" height="36" xlink:href="data:image/png;base64,iVBORw0KGgoAAAANSUhEUgAAACQAAAAkCAYAAADhAJiYAAAABmJLR0QA/wD/AP+gvaeTAAAAmklEQVRYhe3T0QqCQBBG4aOtYEoUvf9Lildltl00C4tkbBeTIP+BAUEYP1YW1Pcqh53B9kbgaVPcwQF0tAmGSrMZ6AKcDQXw+AUVHEAtcAUaewYYgYmC3+cBCkAPnDJQMcoDVNnebgEqQnmAclTz4d0I3P4JStc9AjXvk4qLWQV53LLeEOl05gw4A3dgcPiuUkoppZRSSqk99gLWvSJpuDnlsAAAAABJRU5ErkJggg=="/> </defs> <g> <path style="fill:rgb(10.588%,24.705%,48.627%)" d="M 7.347656 3.152344 C 6.675781 3.152344 6.042969 3.785156 6.042969 4.457031 L 6.042969 31.847656 C 6.042969 32.480469 6.714844 33.152344 7.347656 33.152344 L 28.21875 33.152344 C 28.851562 33.152344 29.523438 32.480469 29.523438 31.847656 L 29.523438 11.632812 L 21.042969 3.152344 Z M 7.347656 3.152344"/> <g clip-path="url(#clip1)"> <g clip-path="url(#clip2)"> <use xlink:href="#image6"/> </g> </g> <path style="fill:rgb(35.686%,45.098%,61.568%)" d="M 21.042969 3.152344 L 29.523438 11.632812 L 22.347656 11.632812 C 21.714844 11.632812 21.042969 10.960938 21.042969 10.328125 Z M 21.042969 3.152344"/> <path style="fill:rgb(100.000%,100.000%,100.000%)" d="M 12.78125 13.453125 L 12.78125 16.695312 C 12.78125 17.347656 12.78125 18 13.433594 18 C 14.085938 18 14.085938 17.347656 14.085938 16.695312 L 14.085938 14.738281 L 16.042969 14.738281 C 16.695312 14.738281 17.347656 14.738281 17.347656 14.085938 C 17.347656 13.433594 16.695312 13.433594 16.042969 13.433594 C 14.738281 13.441406 14.085938 13.453125 12.78125 13.453125 Z M 12.78125 13.453125"/> <path style="fill:rgb(100.000%,100.000%,100.000%)" d="M 23.21875 13.453125 L 23.21875 16.695312 C 23.21875 17.347656 23.21875 18 22.566406 18 C 21.914062 18 21.914062 17.347656 21.914062 16.695312 L 21.914062 14.738281 L 19.957031 14.738281 C 19.304688 14.738281 18.652344 14.738281 18.652344 14.085938 C 18.652344 13.433594 19.304688 13.433594 19.957031 13.433594 C 21.261719 13.441406 21.914062 13.453125 23.21875 13.453125 Z M 23.21875 13.453125"/> <path style="fill:rgb(100.000%,100.000%,100.000%)" d="M 23.199219 23.871094 L 19.957031 23.871094 C 19.304688 23.871094 18.652344 23.871094 18.652344 23.21875 C 18.652344 22.566406 19.304688 22.566406 19.957031 22.566406 L 21.914062 22.566406 L 21.914062 20.609375 C 21.914062 19.957031 21.914062 19.304688 22.566406 19.304688 C 23.21875 19.304688 23.21875 19.957031 23.21875 20.609375 C 23.210938 21.914062 23.199219 22.566406 23.199219 23.871094 Z M 23.199219 23.871094"/> <path style="fill:rgb(100.000%,100.000%,100.000%)" d="M 12.800781 23.871094 L 16.042969 23.871094 C 16.695312 23.871094 17.347656 23.871094 17.347656 23.21875 C 17.347656 22.566406 16.695312 22.566406 16.042969 22.566406 L 14.085938 22.566406 L 14.085938 20.609375 C 14.085938 19.957031 14.085938 19.304688 13.433594 19.304688 C 12.78125 19.304688 12.78125 19.957031 12.78125 20.609375 C 12.789062 21.914062 12.800781 22.566406 12.800781 23.871094 Z M 12.800781 23.871094"/> </g> </svg>

<svg width="36pt" height="36pt" version="1.1" viewBox="0 0 36 36" xmlns="http://www.w3.org/2000/svg"><defs><filter id="a" x="-.192" y="-.192" width="1.384" height="1.384" color-interpolation-filters="sRGB"><feGaussianBlur stdDeviation="0.67843748"/></filter></defs><path d="m7.3477 3.1523c-0.67188 0-1.3047 0.63281-1.3047 1.3047v27.391c0 0.63281 0.67188 1.3047 1.3047 1.3047h20.871c0.63281 0 1.3047-0.67188 1.3047-1.3047v-20.215l-8.4805-8.4805z" fill="#1a3e7b"/><path d="m20.668 3.5272 8.4805 8.4805h-7.1758c-0.63281 0-1.3047-0.67187-1.3047-1.3047z" filter="url(#a)" opacity=".2"/><path d="m21.043 3.1523 8.4805 8.4805h-7.1758c-0.63281 0-1.3047-0.67187-1.3047-1.3047z" fill="#5a729c"/><path d="m12.781 13.453v3.2422c0 0.65234 0 1.3047 0.65234 1.3047s0.65234-0.65234 0.65234-1.3047v-1.957h1.957c0.65234 0 1.3047 0 1.3047-0.65234 0-0.65234-0.65234-0.65234-1.3047-0.65234-1.3047 0.007812-1.957 0.019531-3.2617 0.019531z" fill="#fff"/><path d="m23.219 13.453v3.2422c0 0.65234 0 1.3047-0.65234 1.3047s-0.65234-0.65234-0.65234-1.3047v-1.957h-1.957c-0.65234 0-1.3047 0-1.3047-0.65234 0-0.65234 0.65234-0.65234 1.3047-0.65234 1.3047 0.007812 1.957 0.019531 3.2617 0.019531z" fill="#fff"/><path d="m23.199 23.871h-3.2422c-0.65234 0-1.3047 0-1.3047-0.65234s0.65234-0.65234 1.3047-0.65234h1.957v-1.957c0-0.65234 0-1.3047 0.65234-1.3047s0.65234 0.65234 0.65234 1.3047c-0.007812 1.3047-0.019531 1.957-0.019531 3.2617z" fill="#fff"/><path d="m12.801 23.871h3.2422c0.65234 0 1.3047 0 1.3047-0.65234s-0.65234-0.65234-1.3047-0.65234h-1.957v-1.957c0-0.65234 0-1.3047-0.65234-1.3047s-0.65234 0.65234-0.65234 1.3047c0.007812 1.3047 0.019531 1.957 0.019531 3.2617z" fill="#fff"/></svg>
